X: 15
T: Cock O' The North
R: jig
M: 6/8
L: 1/8
K: Dmaj
A|:d2A B2A|d2A B2A|~F3 FED|~E3 E2A|
d2A B2A|d2A B2A|~F3 ~E3|1 ~D3 D2A:|2 ~D3 D2E||
|:~F3 FED|F2A B2A|~F3 FED|E3 FGA|
~F3 FED|F2A B2A|~F3 ~E3|1 ~D3 D2E:|2 ~D3 D2A||

